X: 100276
M: C|
L: 1/16
K: A
(ubagf) |\
(.e3.c) {AB}(c3A) FA3(E3D) | (C3E)A2g2 a4 (bagf) |\
(.e3.A) {AB}(c3A) FA3 (E3C) | (EFGA) (B3G) A6 (ub/a/g/f/) |
(.e3.A) {AB}(c3A) FA3(E3D) | (C3E)A2g2 a4 (bagf) |\
(.e3A) {AB}(c3A) FA3 (E3C) | (EFGA) (B3G) A6 || uE2 |
(3e2c2e2 (3f2d2f2 (3g2e2g2 {g}(a3f) | (efga) (b3g) "_Segue Reel."a4 "^D.C."|]


